resources/svg/brands/figma.svg

<svg fill="currentColor" xmlns="http://www.w3.org/2000/svg" viewBox="0 0 384 512"><!--! Font Awesome Free 6.7.2 by @fontawesome - https://fontawesome.com License - https://fontawesome.com/license/free (Icons: CC BY 4.0, Fonts: SIL OFL 1.1, Code: MIT License) Copyright 2024 Fonticons, Inc. --><path d="M14 95.7924C14 42.8877 56.8878 0 109.793 0H274.161C327.066 0 369.954 42.8877 369.954 95.7924C369.954 129.292 352.758 158.776 326.711 175.897C352.758 193.019 369.954 222.502 369.954 256.002C369.954 308.907 327.066 351.795 274.161 351.795H272.081C247.279 351.795 224.678 342.369 207.666 326.904V415.167C207.666 468.777 163.657 512 110.309 512C57.5361 512 14 469.243 14 416.207C14 382.709 31.1945 353.227 57.2392 336.105C31.1945 318.983 14 289.5 14 256.002C14 222.502 31.196 193.019 57.2425 175.897C31.196 158.776 14 129.292 14 95.7924ZM176.288 191.587H109.793C74.2172 191.587 45.3778 220.427 45.3778 256.002C45.3778 291.44 73.9948 320.194 109.381 320.416C109.518 320.415 109.655 320.415 109.793 320.415H176.288V191.587ZM207.666 256.002C207.666 291.577 236.505 320.417 272.081 320.417H274.161C309.737 320.417 338.576 291.577 338.576 256.002C338.576 220.427 309.737 191.587 274.161 191.587H272.081C236.505 191.587 207.666 220.427 207.666 256.002ZM109.793 351.795C109.655 351.795 109.518 351.794 109.381 351.794C73.9948 352.015 45.3778 380.769 45.3778 416.207C45.3778 451.652 74.6025 480.622 110.309 480.622C146.591 480.622 176.288 451.186 176.288 415.167V351.795H109.793ZM109.793 31.3778C74.2172 31.3778 45.3778 60.2173 45.3778 95.7924C45.3778 131.368 74.2172 160.207 109.793 160.207H176.288V31.3778H109.793ZM207.666 160.207H274.161C309.737 160.207 338.576 131.368 338.576 95.7924C338.576 60.2173 309.737 31.3778 274.161 31.3778H207.666V160.207Z"/></svg>

<svg fill="currentColor" xmlns="http://www.w3.org/2000/svg" viewBox="0 0 384 512"><!--! Font Awesome Free 7.1.0 by @fontawesome - https://fontawesome.com License - https://fontawesome.com/license/free (Icons: CC BY 4.0, Fonts: SIL OFL 1.1, Code: MIT License) Copyright 2025 Fonticons, Inc. --><path fill="currentColor" d="M14 95.8C14 42.9 56.9 0 109.8 0L274.2 0c52.9 0 95.8 42.9 95.8 95.8 0 33.5-17.2 63-43.2 80.1 26 17.1 43.2 46.6 43.2 80.1 0 52.9-42.9 95.8-95.8 95.8l-2.1 0c-24.8 0-47.4-9.4-64.4-24.9l0 88.3c0 53.6-44 96.8-97.4 96.8-52.8 0-96.3-42.8-96.3-95.8 0-33.5 17.2-63 43.2-80.1-26-17.1-43.2-46.6-43.2-80.1s17.2-63 43.2-80.1C31.2 158.8 14 129.3 14 95.8zm162.3 95.8l-66.5 0c-35.6 0-64.4 28.8-64.4 64.4 0 35.4 28.6 64.2 64 64.4l66.9 0 0-128.8zM207.7 256c0 35.6 28.8 64.4 64.4 64.4l2.1 0c35.6 0 64.4-28.8 64.4-64.4s-28.8-64.4-64.4-64.4l-2.1 0c-35.6 0-64.4 28.8-64.4 64.4zm-97.9 95.8l-.4 0c-35.4 .2-64 29-64 64.4s29.2 64.4 64.9 64.4c36.3 0 66-29.4 66-65.5l0-63.4-66.5 0zm0-320.4c-35.6 0-64.4 28.8-64.4 64.4s28.8 64.4 64.4 64.4l66.5 0 0-128.8-66.5 0zm97.9 128.8l66.5 0c35.6 0 64.4-28.8 64.4-64.4s-28.8-64.4-64.4-64.4l-66.5 0 0 128.8z"/></svg>
